packages/core/src/svgs/tokens/branded/SOMM.svg

<svg width="24" height="24" viewBox="0 0 24 24" fill="none" xmlns="http://www.w3.org/2000/svg">
<path d="M12 6.16428C13.1045 6.16428 14.1637 5.72555 14.9447 4.9446C15.7255 4.16363 16.1643 3.10443 16.1643 2H7.83572C7.83572 3.10443 8.27445 4.16363 9.05533 4.9446C9.83633 5.72555 10.8955 6.16428 12 6.16428ZM2 16.1643V7.83572C3.10443 7.83572 4.16363 8.27445 4.9446 9.05533C5.72555 9.83633 6.16428 10.8955 6.16428 12C6.16428 13.1045 5.72555 14.1637 4.9446 14.9447C4.16363 15.7255 3.10443 16.1643 2 16.1643ZM12 16.2857C14.3 16.2857 16.2857 14.3 16.2857 12C16.2857 9.7 14.3 7.71428 12 7.71428C9.7 7.71428 7.71428 9.7 7.71428 12C7.71428 14.3 9.7 16.2857 12 16.2857ZM17.8357 12C17.8357 13.1045 18.2745 14.1637 19.0553 14.9447C19.8363 15.7255 20.8955 16.1643 22 16.1643V7.83572C20.8955 7.83572 19.8363 8.27445 19.0553 9.05533C18.2745 9.83633 17.8357 10.8955 17.8357 12ZM22 2V6.16428C20.8955 6.16428 19.8363 5.72555 19.0553 4.9446C18.2745 4.16363 17.8357 3.10443 17.8357 2H22ZM2 6.16428C3.10443 6.16428 4.16363 5.72555 4.9446 4.9446C5.72555 4.16363 6.16428 3.10443 6.16428 2H2V6.16428ZM9.05717 19.0572C9.6395 18.4755 10.3812 18.0793 11.1885 17.919C11.9958 17.7587 12.8327 17.841 13.5932 18.156C14.3537 18.4708 15.0037 19.0042 15.4613 19.6883C15.919 20.3725 16.1637 21.1768 16.1643 22H7.83572C7.83572 20.8928 8.27143 19.8357 9.05 19.0572H9.05717ZM17.8357 22H22V17.8357C20.8955 17.8357 19.8363 18.2745 19.0553 19.0553C18.2745 19.8363 17.8357 20.8955 17.8357 22ZM2 22V17.8357C3.10443 17.8357 4.16363 18.2745 4.9446 19.0553C5.72555 19.8363 6.16428 20.8955 6.16428 22H2Z" fill="#F26057"/>
</svg>

<svg xmlns="http://www.w3.org/2000/svg" width="24" height="24" fill="none" viewBox="0 0 24 24">
    <path fill="#F26057" d="M12 6.164A4.165 4.165 0 0 0 16.164 2H7.836A4.165 4.165 0 0 0 12 6.164m-10 10V7.836a4.165 4.165 0 0 1 0 8.328m10 .122c2.3 0 4.286-1.986 4.286-4.286S14.3 7.714 12 7.714 7.714 9.7 7.714 12 9.7 16.286 12 16.286M17.836 12A4.165 4.165 0 0 0 22 16.164V7.836A4.165 4.165 0 0 0 17.836 12M22 2v4.164A4.165 4.165 0 0 1 17.836 2zM2 6.164A4.164 4.164 0 0 0 6.164 2H2zm7.057 12.893A4.163 4.163 0 0 1 16.164 22H7.836c0-1.107.435-2.164 1.214-2.943zM17.836 22H22v-4.164A4.165 4.165 0 0 0 17.836 22M2 22v-4.164A4.165 4.165 0 0 1 6.164 22z"/>
</svg>
